!!!COM: Schubert, Franz
!!!CDT: 1797/01/31/-1828/11/19/
!!!CNT: Austrian
!!!OTL: Ouverture to Der Teufel als Hydraulicus
!!!ONB: page 8
!!!ODT: ~1812///
!!!PDT: 1886///
!!!OMD: Allegro
**kern	**kern	**kern	**kern	**kern	**kern	**kern	**kern	**kern	**kern
*staff10	*staff9	*staff8	*staff7	*staff6	*staff5	*staff4	*staff3	*staff2	*staff1
*Icbass	*Iviola	*Ivioln	*Ivioln	*Icor	*Ifagot	*Iclars	*Iclars	*Iflt	*Iflt
*	*	*	*	*ITrd+1c+1	*	*ITrd-2c-3	*ITrd-2c-3	*	*
*clefC4	*clefC3	*clefG2	*clefG2	*clefG2	*clefF4	*clefG2	*clefG2	*clefG2	*clefG2
*k[f#c#]	*k[f#c#]	*k[f#c#]	*k[f#c#]	*k[f#c#]	*k[f#c#]	*k[f#c#]	*k[f#c#]	*k[f#c#]	*k[f#c#]
*D:	*D:	*D:	*D:	*D:	*D:	*D:	*D:	*D:	*D:
*M3/4	*M3/4	*M3/4	*M3/4	*M3/4	*M3/4	*M3/4	*M3/4	*M3/4	*M3/4
*MM184	*MM184	*MM184	*MM184	*MM184	*MM184	*MM184	*MM184	*MM184	*MM184
=186	=186	=186	=186	=186	=186	=186	=186	=186	=186
4A'/	4c#'\ 4e'\	4A'/ 4g'/	(8bb\L	4a\ 4ee\	4A\	2.g\	(8b\L	2.cc#'\	(8bb\L
.	.	.	8aa\)	.	.	.	8a\)	.	8aa\)
4A'/	4c#'\ 4e'\	4A'/ 4g'/	(8bb\	4a\ 4ee\	4A\	.	(8b\	.	(8bb\
.	.	.	8aa\)	.	.	.	8a\)	.	8aa\)
4A/	4c#'\ 4e'\	4A'/ 4g'/	(8bb\	4a\ 4ee\	4A\	.	(8b\	.	(8bb\
.	.	.	8aa\J)	.	.	.	8a\J)	.	8aa\J)
=187	=187	=187	=187	=187	=187	=187	=187	=187	=187
4d/	4d\	4A/ 4f#/	8ddd\L	4dd\ 4ff#\	4d\	[2.f#/	8dd\L	[2.dd\	8ddd\L
.	.	.	8ccc#\	.	.	.	8cc#\	.	8ccc#\
4d/	4d\	4A/ 4f#/	8bb\	4dd\ 4ff#\	4d\	.	8b\	.	8bb\
.	.	.	8aa\	.	.	.	8a\	.	8aa\
4d/	4d\	4A/ 4f#/	8gg\	4dd\ 4ff#\	4d\	.	8g\	.	8gg\
.	.	.	8ff#\J	.	.	.	8f#\J	.	8ff#\J
=188	=188	=188	=188	=188	=188	=188	=188	=188	=188
4d/	4d\	4A/ 4f#/	8bb\L	4dd\ 4ff#\	4d\	2.f#/]	8b/L	2.dd\]	8bb\L
.	.	.	8aa\	.	.	.	8a/	.	8aa\
4d/	4d\	4A/ 4f#/	8gg\	4dd\ 4ff#\	4d\	.	8g/	.	8gg\
.	.	.	8ff#\	.	.	.	8f#/	.	8ff#\
4d/	4d\	4A/ 4f#/	8ee\	4dd\ 4ff#\	4d\	.	8e/	.	8ee\
.	.	.	8dd\J	.	.	.	8d/J	.	8dd\J
*clefF4	*	*	*	*	*	*	*	*	*
=189	=189	=189	=189	=189	=189	=189	=189	=189	=189
4A\	4c#\ 4e\	4A/ 4g/	4a'/	4a\ 4ee\	4A\	[2.g\	[2.e/	[2.a/	4a'/
4A\	4c#\ 4e\	4A/ 4g/	4b'\	4a\ 4ee\	4A\	.	.	.	4b'\
4A\	4c#\ 4e\	4A/ 4g/	4cc#'\	4a\ 4ee\	4A\	.	.	.	4cc#'\
=190	=190	=190	=190	=190	=190	=190	=190	=190	=190
4A\	4c#\ 4e\	4A/ 4g/	4a'/	4a\ 4ee\	4A\	2.g\]	2.e/]	2.a/]	4a'/
4A\	4c#\ 4e\	4A/ 4g/	4b'\	4a\ 4ee\	4A\	.	.	.	4b'\
4A\	4c#\ 4e\	4A/ 4g/	4cc#'\	4a\ 4ee\	4A\	.	.	.	4cc#'\
=191	=191	=191	=191	=191	=191	=191	=191	=191	=191
4d\	4d\	4A/ 4f#/	4dd'\	4dd\ 4ff#\	4d\	[2.f#/	[2.d/	[2.a/	4dd'\
4A\	4d\	4A/ 4f#/	4ff#'\	4dd\ 4ff#\	4A\	.	.	.	4ff#'\
4F#\	4d\	4A/ 4f#/	4aa'\	4dd\ 4ff#\	4F#\	.	.	.	4aa'\
=192	=192	=192	=192	=192	=192	=192	=192	=192	=192
4D\	4d\	4A/ 4f#/	4ddd'\	4dd\ 4ff#\	4D\	2.f#/]	2.d/]	2.a/]	4ddd'\
4r	4d\	4A/ 4f#/	4r	4dd\ 4ff#\	4r	.	.	.	4r
4r	4d\	4A/ 4f#/	4aa'\	4dd\ 4ff#\	4r	.	.	.	4aa'\
=193	=193	=193	=193	=193	=193	=193	=193	=193	=193
4A\	4c#\ 4e\	4A/ 4g/	(8bb\L	4a\ 4ee\	4A\	[2.g\	(8b\L	[2.cc#\	(8bb\L
.	.	.	8aa\)	.	.	.	8a\)	.	8aa\)
4A\	4c#\ 4e\	4A/ 4g/	(8bb\	4a\ 4ee\	4A\	.	(8b\	.	(8bb\
.	.	.	8aa\)	.	.	.	8a\)	.	8aa\)
4A\	4c#\ 4e\	4A/ 4g/	(8bb\	4a\ 4ee\	4A\	.	(8b\	.	(8bb\
.	.	.	8aa\J)	.	.	.	8a\J)	.	8aa\J)
=194	=194	=194	=194	=194	=194	=194	=194	=194	=194
4A\	4c#\ 4e\	4A/ 4g/	(8bb\L	4a\ 4ee\	4A\	2.g\]	(8b\L	2.cc#\]	(8bb\L
.	.	.	8aa\)	.	.	.	8a\)	.	8aa\)
4A\	4c#\ 4e\	4A/ 4g/	(8bb\	4a\ 4ee\	4A\	.	(8b\	.	(8bb\
.	.	.	8aa\)	.	.	.	8a\)	.	8aa\)
4A\	4c#\ 4e\	4A/ 4g/	(8bb\	4a\ 4ee\	4A\	.	(8b\	.	(8bb\
.	.	.	8aa\J)	.	.	.	8a\J)	.	8aa\J)
=195	=195	=195	=195	=195	=195	=195	=195	=195	=195
4d\	4d\	4A/ 4f#/	8ddd\L	4dd\ 4ff#\	4d\	[2.f#/	8dd\L	[2.dd\	8ddd\L
.	.	.	8ccc#\	.	.	.	8cc#\	.	8ccc#\
4d\	4d\	4A/ 4f#/	8bb\	4dd\ 4ff#\	4d\	.	8b\	.	8bb\
.	.	.	8aa\	.	.	.	8a\	.	8aa\
4d\	4d\	4A/ 4f#/	8gg\	4dd\ 4ff#\	4d\	.	8g\	.	8gg\
.	.	.	8ff#\J	.	.	.	8f#\J	.	8ff#\J
=196	=196	=196	=196	=196	=196	=196	=196	=196	=196
4d\	4d\	4A/ 4f#/	8bb\L	4dd\ 4ff#\	4d\	2.f#/]	8b/L	2.dd\]	8bb\L
.	.	.	8aa\	.	.	.	8a/	.	8aa\
4d\	4d\	4A/ 4f#/	8gg\	4dd\ 4ff#\	4d\	.	8g/	.	8gg\
.	.	.	8ff#\	.	.	.	8f#/	.	8ff#\
4d\	4d\	4A/ 4f#/	8ee\	4dd\ 4ff#\	4d\	.	8e/	.	8ee\
.	.	.	8dd\J	.	.	.	8d/J	.	8dd\J
=197	=197	=197	=197	=197	=197	=197	=197	=197	=197
4A\	4c#\ 4e\	4A/ 4g/	4a'/	4a\ 4ee\	4A\	[2.g\	[2.e/	[2.a/	4a'/
4A\	4c#\ 4e\	4A/ 4g/	4b'\	4a\ 4ee\	4A\	.	.	.	4b'\
4A\	4c#\ 4e\	4A/ 4g/	4cc#'\	4a\ 4ee\	4A\	.	.	.	4cc#'\
=198	=198	=198	=198	=198	=198	=198	=198	=198	=198
4A\	4c#\ 4e\	4A/ 4g/	4a'/	4a\ 4ee\	4A\	(2g\]	2.e/]	2.a/]	4a'/
4A\	4c#\ 4e\	4A/ 4g/	4b'\	4a\ 4ee\	4A\	.	.	.	4b'\
4A\	4c#\ 4e\	4A/ 4g/	4cc#'\	4a\ 4ee\	4A\	4e/)	.	.	4cc#'\
=199	=199	=199	=199	=199	=199	=199	=199	=199	=199
4d\	4d\	4A/ 4f#/	4dd'\	4dd\ 4ff#\	4d\	[2.d/	[2.f#/	[2.a/	4dd'\
4A\	4d\	4A/ 4f#/	4ff#'\	4dd\ 4ff#\	4A\	.	.	.	4ff#'\
4F#\	4d\	4A/ 4f#/	4aa'\	4dd\ 4ff#\	4F#\	.	.	.	4aa'\
=200	=200	=200	=200	=200	=200	=200	=200	=200	=200
4D\	4d\	4A/ 4f#/	4ddd'\	4dd\ 4ff#\	4D\	4d/]	4f#/]	4a/]	4ddd'\
4r	4r	4r	4r	4r	4r	4r	4r	4r	4r
4r	4a'\	4ff#'\	4aa'\	4r	4r	4a'\	4ff#'\	4ff#'\	(4aa'\
=201	=201	=201	=201	=201	=201	=201	=201	=201	=201
8D\L	4b'\	4gg'\	4bb'\	(2.d/ [2.dd/	[2.d\	(2.b\	(2.gg\	(2.gg\	(2.bb\)
8d\J	.	.	.	.	.	.	.	.	.
8d\L	4dd'\	4bb'\	4ddd'\	.	.	.	.	.	.
8d\J	.	.	.	.	.	.	.	.	.
8d\L	4b'\	4gg'\	4bb'\	.	.	.	.	.	.
8d\J	.	.	.	.	.	.	.	.	.
=202	=202	=202	=202	=202	=202	=202	=202	=202	=202
8d\L	4a'\	4ff#'\	4aa'\	2.d/ 2.dd/])	2.d\]	2.a\)	2ff#\	2ff#\	2.aa\)
8d\J	.	.	.	.	.	.	.	.	.
8d\L	4r	4r	4r	.	.	.	.	.	.
8d\J	.	.	.	.	.	.	.	.	.
8d\L	4f#'\	4dd'\	4ff#'\	.	.	.	4dd\)	4dd\)	.
8d\J	.	.	.	.	.	.	.	.	.
=203	=203	=203	=203	=203	=203	=203	=203	=203	=203
8d\L	4g'\	4b'\	4gg'\	(2.d/ [2.dd/	[2.d\	(2.g\	(2.b\	(2.b\	(2.gg\
8d\J	.	.	.	.	.	.	.	.	.
8d\L	4b'\	4dd'\	4bb'\	.	.	.	.	.	.
8d\J	.	.	.	.	.	.	.	.	.
8d\L	4g'\	4b'\	4gg'\	.	.	.	.	.	.
8d\J	.	.	.	.	.	.	.	.	.
=204	=204	=204	=204	=204	=204	=204	=204	=204	=204
8d\L	4f#'\	4a'/	4ff#'\	2.d/ 2.dd/])	2.d\]	2.f#/)	2.a\)	2.a/)	2.ff#\)
8d\J	.	.	.	.	.	.	.	.	.
8d\L	4d'\	4f#'/	4r	.	.	.	.	.	.
8d\J	.	.	.	.	.	.	.	.	.
8d\L	4d'\	4f#'/	4ff#'\	.	.	.	.	.	.
8d\J	.	.	.	.	.	.	.	.	.
=205	=205	=205	=205	=205	=205	=205	=205	=205	=205
8A\L	4c#\	4g/	4ee'\	2a\ 2ee\	[2.A\	[2.g\	4ee'\	[2.a/	4ee'\
8A\J	.	.	.	.	.	.	.	.	.
8A\L	4c#\	4g/	4ff#'\	.	.	.	4ff#'\	.	4ff#'\
8A\J	.	.	.	.	.	.	.	.	.
8A\L	4c#\	4g/	4gg'\	4a\ 4ee\	.	.	4gg'\	.	4gg'\
8A\J	.	.	.	.	.	.	.	.	.
=206	=206	=206	=206	=206	=206	=206	=206	=206	=206
8A\L	4e\	4g/	4a'/	2a\ 2ee\	2.A\]	2.g\]	4a'\	2.a/]	4a'/
8A\J	.	.	.	.	.	.	.	.	.
8A\L	4e\	4g/	4b'\	.	.	.	4b'\	.	4b'\
8A\J	.	.	.	.	.	.	.	.	.
8A\L	4e\	4g/	4cc#'\	4a\ 4ee\	.	.	4cc#'\	.	4cc#'\
8A\J	.	.	.	.	.	.	.	.	.
=207	=207	=207	=207	=207	=207	=207	=207	=207	=207
4d'\	4d\	4f#/	4dd'\	2f#/ 2dd/	4d'\	[2.f#/	[2.dd\	[2.a'/	4dd'\
4A'\	4d\	4f#/	4ff#'\	.	4A'\	.	.	.	4ff#'\
4F#'\	4d\	4f#/	4aa'\	4f#/ 4dd/	4F#'\	.	.	.	4aa'\
=208	=208	=208	=208	=208	=208	=208	=208	=208	=208
4D'\	4d\	4f#/	4ddd'\	4f#/ 4dd/	4D'\	4f#/]	4dd\]	4a/]	4ddd'\
4d'\	4d\	4f#/	4r	4r	4d'\	4r	4r	4r	4r
4d'\	4a'\	4ff#'\	4aa'\	4r	4d'\	4a'\	4ff#'\	4ff#'\	4aa'\
=209	=209	=209	=209	=209	=209	=209	=209	=209	=209
8D\L	4b'\	4gg'\	4bb'\	(2.d/ [2.dd/	[2.d\	(2.b\	(2.gg\	(2.gg\	(2.bb\
8d\J	.	.	.	.	.	.	.	.	.
8d\L	4dd'\	4bb'\	4ddd'\	.	.	.	.	.	.
8d\J	.	.	.	.	.	.	.	.	.
8d\L	4b'\	4gg'\	4bb'\	.	.	.	.	.	.
8d\J	.	.	.	.	.	.	.	.	.
=210	=210	=210	=210	=210	=210	=210	=210	=210	=210
8d\L	4a'\	4ff#'\	4aa'\	2.d/ 2.dd/])	2.d\]	2.a\)	2ff#\	2ff#\	2.aa\)
8d\J	.	.	.	.	.	.	.	.	.
8d\L	4r	4r	4r	.	.	.	.	.	.
8d\J	.	.	.	.	.	.	.	.	.
8d\L	4f#'\	4dd'\	4ff#'\	.	.	.	4dd\)	4dd\)	.
8d\J	.	.	.	.	.	.	.	.	.
=211	=211	=211	=211	=211	=211	=211	=211	=211	=211
8d\L	4g'\	4b'\	4gg'\	2.d/ 2.dd/	2.d\	2.g\	2.b\	2.b\	2.gg\
8d\J	.	.	.	.	.	.	.	.	.
8d\L	4b'\	4dd'\	4bb'\	.	.	.	.	.	.
8d\J	.	.	.	.	.	.	.	.	.
8d\L	4g'\	4b'\	4gg'\	.	.	.	.	.	.
8d\J	.	.	.	.	.	.	.	.	.
*-	*-	*-	*-	*-	*-	*-	*-	*-	*-
!!!hum2abc: -s 0.45 --spacing 3.0
